X: 223
T: John Stenson's #2
B: canberra pickers and fiddlers
B: tunes
M:4/4
Q: 1/4=100
K:A
V:1 
|:cB|"A"ABcA "Bm"B2 cB|"A"ABcA "D"BAFB|"A"ABcA "F#m"B2 cf|"A"edcA "Bm"BAFB|
 "A"ABcA "Bm"B2 cB|"A"ABcA "Bm"BAFA|"D"d2 dc "Bm"dfed|"F#m"cdBc "A"A2:|
 |:Ae|"A"e2 cd "D"edcd|"A"e2 cA "Bm"BAFA|"A"e2 cd "F#m"edcA|"Bm"B/c/d cA "F#m"BAFA|
 "A"e2 cd "D"edcd|"A"e2 cA "Bm"BAFA|"D"d2 dc "Bm"dfed|"F#m"cdBc "A"~A2:|
% abcbook-tune_id 62ba4ef613f7a260c66780fc
% abcbook-tune_composer_id 
% abcbook-link-0 https://www.youtube.com/watch?v=P7GUeCBsPaQ
% abcbook-link-title-0 John Stenson&#39;s #2 (Album Version 2007)
% abcbook-link-1 https://www.youtube.com/watch?v=Ulr8iJD_u40
% abcbook-link-title-1 Clifftop 2013: EZ ups play &quot;John Stenson&#39;s No. 2&quot; (contest performance)
% abcbook-boost 0
% abcbook-difficulty 0
% abcbook-tags celtic tunes,old time tunes,sean kenan book,© free
% abcbook-tablature 
% abcbook-transpose -7
% abcbook-tuning ADAE
% abcbook-lastupdated 1739276073942
% abcbook-src-url https://tunebook.net/scrape/tunes.abc
% abcbook-soundfonts 
% abcbook-repeats 1
%%MIDI transpose -7


